assets/svg/exchange_icons/change_now_logo_1.svg

<svg width="24" height="24" viewBox="0 0 24 24" fill="none" xmlns="http://www.w3.org/2000/svg">
<g clip-path="url(#clip0_5027_35188)">
<path d="M24 0H0V24H24V0Z" fill="url(#paint0_linear_5027_35188)"/>
<path d="M4.20841 17.352C4.20841 16.032 4.20841 14.72 4.20841 13.384C4.23241 13.408 4.24841 13.432 4.25641 13.448C4.53641 13.872 4.82441 14.288 5.10441 14.712C5.68841 15.576 6.28041 16.448 6.86441 17.304C6.88841 17.352 6.92841 17.368 6.97641 17.368C7.20841 17.368 7.44041 17.368 7.68041 17.368C7.70441 17.368 7.72041 17.368 7.74441 17.368C7.74441 15.752 7.74441 14.152 7.74441 12.544C7.52841 12.544 7.30441 12.544 7.08841 12.544C7.08841 13.864 7.08841 15.176 7.08841 16.496C7.06441 16.48 7.04841 16.472 7.04041 16.456C6.17641 15.16 5.32041 13.872 4.45641 12.584C4.43241 12.544 4.40841 12.536 4.36841 12.536C4.12841 12.536 3.87241 12.536 3.63241 12.536C3.60841 12.536 3.59241 12.536 3.56841 12.536C3.56841 14.152 3.56841 15.752 3.56841 17.352C3.76841 17.352 3.99241 17.352 4.20841 17.352ZM5.95241 6.52002C5.95241 7.86402 5.95241 9.20002 5.95241 10.544C6.11241 10.544 6.26441 10.544 6.44041 10.544C6.44041 10.52 6.44041 10.496 6.44041 10.472C6.44041 10.072 6.44041 9.65602 6.44041 9.25602C6.44041 9.16802 6.45641 9.07202 6.46441 8.99202C6.52841 8.64002 6.77641 8.42402 7.12041 8.42402C7.40041 8.42402 7.60841 8.56802 7.68041 8.84002C7.70441 8.92802 7.70441 9.02402 7.72041 9.12002C7.72041 9.58402 7.72041 10.04 7.72041 10.504C7.72041 10.528 7.72041 10.552 7.72041 10.576C7.88841 10.576 8.03241 10.576 8.20841 10.576C8.20841 10.552 8.20841 10.536 8.20841 10.512C8.20841 10 8.20841 9.48002 8.20841 8.96802C8.20841 8.88002 8.20841 8.80002 8.18441 8.71202C8.13641 8.42402 7.99241 8.19202 7.71241 8.05602C7.52041 7.96802 7.29641 7.94402 7.08041 7.98402C6.81641 8.03202 6.59241 8.15202 6.44841 8.40002H6.43241C6.43241 7.78402 6.43241 7.15202 6.43241 6.53602C6.27241 6.52002 6.11241 6.52002 5.95241 6.52002ZM14.1044 10.544C14.1044 10.52 14.1044 10.504 14.1044 10.496C14.1044 9.97602 14.1044 9.45602 14.1044 8.92802C14.1044 8.85602 14.1044 8.78402 14.0884 8.71202C14.0484 8.47202 13.9444 8.26402 13.7364 8.12002C13.4244 7.90402 12.9124 7.91202 12.5844 8.14402C12.4884 8.21602 12.4164 8.30402 12.3444 8.40002C12.3444 8.28002 12.3444 8.16002 12.3444 8.02402C12.2564 8.02402 12.1764 8.02402 12.1044 8.02402C12.0324 8.02402 11.9444 8.02402 11.8724 8.02402C11.8724 8.87202 11.8724 9.71202 11.8724 10.544C12.0324 10.544 12.1844 10.544 12.3444 10.544C12.3444 10.52 12.3444 10.496 12.3444 10.472C12.3444 10.072 12.3444 9.68002 12.3444 9.28002C12.3444 9.19202 12.3444 9.12002 12.3604 9.04002C12.4004 8.68002 12.6164 8.44802 12.9684 8.40802C13.2484 8.36802 13.4884 8.48002 13.5764 8.74402C13.6164 8.85602 13.6244 8.96002 13.6244 9.08002C13.6244 9.54402 13.6244 9.99202 13.6244 10.448C13.6244 10.472 13.6244 10.496 13.6244 10.52C13.7844 10.544 13.9444 10.544 14.1044 10.544ZM5.08841 9.88002C5.07241 9.89602 5.06441 9.92002 5.04841 9.92802C4.72041 10.28 4.08041 10.216 3.82441 9.80802C3.65641 9.54402 3.64041 9.26402 3.72841 8.96802C3.91241 8.33602 4.57641 8.28802 4.92841 8.54402C4.99241 8.59202 5.04041 8.63202 5.09641 8.68002C5.21641 8.56802 5.33641 8.46402 5.44841 8.35202C5.05641 7.88002 4.11241 7.78402 3.56841 8.28002C3.03241 8.76802 3.02441 9.76002 3.52841 10.248C4.07241 10.768 5.05641 10.688 5.43241 10.208C5.33641 10.112 5.22441 10 5.08841 9.88002Z" fill="#FAFDFC"/>
<path d="M4.20873 17.3521C3.97673 17.3521 3.76873 17.3521 3.55273 17.3521C3.55273 15.7521 3.55273 14.1361 3.55273 12.5361C3.57673 12.5361 3.59273 12.5361 3.61673 12.5361C3.85673 12.5361 4.11273 12.5361 4.35273 12.5361C4.40073 12.5361 4.42473 12.5521 4.44073 12.5841C5.31273 13.8721 6.17673 15.1521 7.03273 16.4401C7.04873 16.4561 7.05673 16.4641 7.08073 16.4801C7.08073 15.1681 7.08073 13.8481 7.08073 12.5281C7.29673 12.5281 7.52073 12.5281 7.73673 12.5281C7.73673 14.1281 7.73673 15.7441 7.73673 17.3521C7.71273 17.3521 7.69673 17.3521 7.67273 17.3521C7.44073 17.3521 7.20873 17.3521 6.96873 17.3521C6.92073 17.3521 6.88073 17.3361 6.85673 17.2881C6.27273 16.4241 5.68873 15.5521 5.09673 14.6961C4.81673 14.2721 4.52873 13.8561 4.24873 13.4321C4.23273 13.4161 4.22473 13.3921 4.20073 13.3681C4.20873 14.7201 4.20873 16.0241 4.20873 17.3521Z" fill="#01C16B"/>
<path d="M5.95234 6.52002C6.11234 6.52002 6.26434 6.52002 6.42434 6.52002C6.42434 7.13602 6.42434 7.76802 6.42434 8.38402C6.44034 8.38402 6.44034 8.38402 6.44034 8.38402C6.57634 8.14402 6.79234 8.00802 7.07234 7.96802C7.28834 7.92802 7.49634 7.94402 7.70434 8.04002C7.98434 8.16002 8.12834 8.39202 8.17634 8.69602C8.19234 8.78402 8.20034 8.86402 8.20034 8.95202C8.20034 9.46402 8.20034 9.98402 8.20034 10.496C8.20034 10.52 8.20034 10.536 8.20034 10.56C8.04034 10.56 7.88834 10.56 7.71234 10.56C7.71234 10.536 7.71234 10.512 7.71234 10.488C7.71234 10.024 7.71234 9.56802 7.71234 9.10402C7.71234 9.00802 7.69634 8.91202 7.67234 8.82402C7.60034 8.56002 7.40834 8.40802 7.11234 8.40802C6.76034 8.40802 6.52034 8.62402 6.45634 8.97602C6.44034 9.06402 6.43234 9.16002 6.43234 9.24002C6.43234 9.64002 6.43234 10.056 6.43234 10.456C6.43234 10.48 6.43234 10.504 6.43234 10.528C6.27234 10.528 6.12034 10.528 5.94434 10.528C5.95234 9.20002 5.95234 7.86402 5.95234 6.52002Z" fill="#FAFDFC"/>
<path d="M14.1049 10.544C13.9449 10.544 13.7929 10.544 13.6329 10.544C13.6329 10.52 13.6329 10.496 13.6329 10.472C13.6329 10.008 13.6329 9.56001 13.6329 9.10401C13.6329 8.99201 13.6169 8.87201 13.5849 8.76801C13.4889 8.50401 13.2569 8.39201 12.9769 8.43201C12.6249 8.47201 12.4169 8.69601 12.3689 9.06401C12.3529 9.15201 12.3529 9.22401 12.3529 9.30401C12.3529 9.70401 12.3529 10.096 12.3529 10.496C12.3529 10.52 12.3529 10.544 12.3529 10.568C12.1929 10.568 12.0409 10.568 11.8809 10.568C11.8809 9.72801 11.8809 8.89601 11.8809 8.04801C11.9529 8.04801 12.0409 8.04801 12.1129 8.04801C12.1849 8.04801 12.2729 8.04801 12.3529 8.04801C12.3529 8.16801 12.3529 8.30401 12.3529 8.42401C12.4249 8.32801 12.4969 8.23201 12.5929 8.16801C12.9209 7.93601 13.4329 7.92801 13.7449 8.14401C13.9529 8.28801 14.0569 8.49601 14.0969 8.73601C14.1129 8.80801 14.1129 8.88001 14.1129 8.95201C14.1129 9.47201 14.1129 9.99201 14.1129 10.52C14.1049 10.512 14.1049 10.52 14.1049 10.544Z" fill="#FAFDFC"/>
<path d="M5.08837 9.88005C5.20837 10.0001 5.32837 10.1201 5.44037 10.2321C5.06437 10.6961 4.08037 10.7761 3.53637 10.2721C3.02437 9.78405 3.04037 8.79205 3.57637 8.30405C4.12037 7.80805 5.06437 7.91205 5.45637 8.37605C5.33637 8.48805 5.21637 8.59205 5.10437 8.70405C5.04037 8.65605 4.99237 8.60805 4.93637 8.56805C4.58437 8.31205 3.92037 8.36005 3.73637 8.99205C3.64837 9.28005 3.66437 9.56005 3.83237 9.83205C4.08837 10.2481 4.72837 10.3041 5.05637 9.95205C5.06437 9.91205 5.08037 9.88805 5.08837 9.88005Z" fill="#FAFDFC"/>
<path d="M20.8323 12.544C20.7843 12.688 20.7443 12.832 20.6963 12.984C20.2723 14.424 19.8563 15.872 19.4323 17.312C19.4163 17.352 19.4083 17.36 19.3683 17.36C19.1763 17.36 18.9763 17.36 18.7843 17.36C18.7363 17.36 18.7203 17.344 18.7123 17.296C18.5043 16.592 18.2883 15.88 18.0803 15.176C17.9123 14.608 17.7443 14.032 17.5683 13.464C17.5683 13.448 17.5523 13.44 17.5443 13.416C17.5203 13.512 17.4803 13.6 17.4563 13.68C17.1043 14.896 16.7443 16.096 16.3923 17.304C16.3763 17.352 16.3523 17.368 16.3043 17.368C16.1123 17.368 15.9123 17.368 15.7363 17.368C15.6883 17.368 15.6723 17.352 15.6643 17.32C15.3603 16.288 15.0563 15.256 14.7683 14.224C14.6083 13.688 14.4563 13.16 14.3043 12.624C14.2883 12.6 14.2883 12.576 14.2803 12.552C14.2963 12.552 14.3043 12.552 14.3203 12.552C14.5283 12.552 14.7203 12.552 14.9283 12.552C14.9683 12.552 14.9763 12.576 14.9923 12.6C15.1363 13.144 15.2963 13.688 15.4403 14.224C15.6323 14.928 15.8323 15.64 16.0243 16.344C16.0243 16.36 16.0403 16.384 16.0483 16.408C16.4403 15.112 16.8163 13.824 17.1923 12.536C17.3363 12.536 17.4803 12.536 17.6323 12.536C17.7203 12.536 17.8163 12.536 17.8963 12.536C17.9363 12.536 17.9443 12.552 17.9603 12.584C18.0803 13 18.2003 13.408 18.3203 13.824C18.5603 14.664 18.8163 15.512 19.0563 16.344C19.0563 16.36 19.0723 16.368 19.0803 16.392C19.1283 16.208 19.1763 16.032 19.2243 15.848C19.5283 14.76 19.8323 13.68 20.1203 12.584C20.1363 12.544 20.1443 12.52 20.1923 12.52C20.4083 12.536 20.6243 12.536 20.8323 12.544C20.8323 12.536 20.8323 12.536 20.8323 12.544Z" fill="#01C16B"/>
<path d="M16.9685 8.02398C16.9685 8.13598 16.9685 8.25598 16.9685 8.35998C16.7365 8.09598 16.4565 7.95998 16.1205 7.95998C15.6485 7.94398 15.2725 8.11998 15.0165 8.51998C14.8325 8.79998 14.7845 9.10398 14.8085 9.43198C14.8325 9.71198 14.9285 9.95198 15.1125 10.16C15.4165 10.488 15.7925 10.624 16.2245 10.576C16.4805 10.536 16.6965 10.456 16.8645 10.264C16.9045 10.224 16.9285 10.192 16.9605 10.144C16.9765 10.16 16.9765 10.16 16.9765 10.168C16.9765 10.328 16.9765 10.48 16.9605 10.64C16.9445 10.848 16.8725 11.032 16.7205 11.16C16.5765 11.28 16.4085 11.344 16.2085 11.368C15.8965 11.408 15.6165 11.344 15.3605 11.152C15.2885 11.088 15.2245 11.032 15.1525 10.968C15.0405 11.104 14.9365 11.232 14.8245 11.368C14.9605 11.504 15.1125 11.608 15.2885 11.68C15.5685 11.8 15.8565 11.84 16.1525 11.824C16.4645 11.808 16.7445 11.728 16.9925 11.536C17.3205 11.272 17.4565 10.92 17.4565 10.504C17.4565 9.70398 17.4565 8.88798 17.4565 8.08798C17.4565 8.06398 17.4565 8.04798 17.4565 8.02398C17.2805 8.02398 17.1205 8.02398 16.9685 8.02398ZM16.5765 10.024C16.2885 10.192 15.7125 10.192 15.4485 9.79198C15.2325 9.46398 15.2645 8.90398 15.5445 8.63998C15.8005 8.39998 16.0885 8.35198 16.4165 8.44798C16.7445 8.55998 16.9125 8.80798 16.9525 9.13598C16.9685 9.18398 16.9685 9.23198 16.9685 9.27198C16.9685 9.59998 16.8565 9.85598 16.5765 10.024Z" fill="#FAFDFC"/>
<path d="M20.6483 9.45604C20.6483 9.36804 20.6643 9.27204 20.6323 9.17604C20.6163 8.89604 20.5603 8.63204 20.3923 8.40004C20.1603 8.08804 19.8323 7.93604 19.4483 7.93604C18.9843 7.93604 18.6083 8.10404 18.3443 8.49604C18.1283 8.82404 18.0803 9.18404 18.1523 9.57604C18.2003 9.83204 18.3123 10.064 18.4883 10.24C18.6963 10.448 18.9523 10.568 19.2403 10.592C19.6883 10.64 20.0883 10.544 20.4163 10.216C20.4643 10.176 20.5043 10.128 20.5363 10.08C20.4163 9.98404 20.2963 9.89604 20.1763 9.80004C20.1603 9.82404 20.1363 9.84004 20.1283 9.86404C19.9363 10.072 19.7043 10.2 19.4163 10.176C19.0883 10.152 18.8323 10.008 18.6883 9.70404C18.6483 9.61604 18.6403 9.53604 18.6403 9.44804C18.9763 9.44804 19.3043 9.44804 19.6483 9.44804C19.9923 9.44804 20.3123 9.45604 20.6483 9.45604ZM18.7443 8.70404C18.9603 8.36804 19.4003 8.24004 19.7603 8.41604C19.9763 8.52804 20.1363 8.76804 20.1203 9.07204C19.6243 9.07204 19.1283 9.07204 18.6323 9.07204C18.6403 8.92804 18.6883 8.80804 18.7443 8.70404Z" fill="#FAFDFC"/>
<path d="M9.3285 8.60791C9.3125 8.62391 9.3125 8.62391 9.3125 8.62391C9.3285 8.61591 9.3285 8.61591 9.3285 8.60791Z" fill="#FAFDFC"/>
<path d="M11.0967 9.90397C11.0807 9.51197 11.0967 9.11197 11.0807 8.72797C11.0647 8.43997 10.9207 8.20797 10.6567 8.08797C10.1607 7.85597 9.68866 7.91997 9.22466 8.17597C9.15266 8.21597 9.08866 8.27197 9.00866 8.33597C9.12866 8.43197 9.22466 8.52797 9.32066 8.61597C9.36066 8.59997 9.39266 8.57597 9.44066 8.55197C9.65666 8.38397 9.91266 8.31997 10.1927 8.36797C10.5047 8.41597 10.6807 8.69597 10.6327 8.98397C10.6087 8.98397 10.5847 8.98397 10.5607 8.98397C10.3687 8.98397 10.1847 8.98397 9.99266 8.99997C9.73666 9.02397 9.49666 9.07197 9.28066 9.20797C9.07266 9.32797 8.94466 9.51197 8.92066 9.76797C8.88066 10.12 9.05666 10.424 9.36866 10.544C9.53666 10.616 9.72066 10.632 9.90466 10.616C10.2167 10.592 10.4727 10.472 10.6567 10.2C10.6727 10.184 10.6727 10.176 10.6727 10.16L10.6887 10.176C10.6887 10.296 10.7047 10.416 10.7047 10.536C10.8487 10.536 10.9927 10.536 11.1287 10.536C11.1047 10.312 11.0967 10.112 11.0967 9.90397ZM10.6247 9.48797C10.6247 9.50397 10.6247 9.51197 10.6247 9.52797C10.6247 9.55197 10.6247 9.57597 10.6087 9.59997C10.6087 9.61597 10.6087 9.61597 10.6087 9.62397C10.6087 9.63997 10.6087 9.64797 10.5927 9.67197C10.5687 9.81597 10.5047 9.95197 10.3847 10.048C10.2407 10.184 10.0727 10.208 9.88866 10.208C9.86466 10.208 9.82466 10.208 9.80066 10.208C9.68866 10.208 9.58466 10.184 9.49666 10.12C9.28866 9.97597 9.30466 9.67197 9.49666 9.51197C9.60866 9.42397 9.73666 9.39197 9.85666 9.36797C9.99266 9.34397 10.2487 9.32797 10.4407 9.32797C10.5047 9.32797 10.5607 9.32797 10.6087 9.32797C10.6087 9.36797 10.6087 9.39997 10.6087 9.42397C10.6247 9.45597 10.6247 9.47997 10.6247 9.48797Z" fill="#FAFDFC"/>
<path d="M13.6409 13.968C13.4089 13.336 12.9609 12.88 12.3289 12.608C11.8569 12.416 11.3689 12.368 10.8729 12.44C10.3849 12.512 9.96086 12.704 9.60086 13.032C9.27286 13.336 9.05686 13.688 8.92086 14.096C8.80086 14.488 8.76086 14.888 8.80886 15.288C8.89686 15.976 9.20086 16.552 9.74486 16.976C10.2089 17.328 10.7289 17.488 11.3129 17.488C11.4249 17.472 11.5209 17.472 11.6009 17.464C12.4169 17.376 13.0569 16.992 13.4649 16.272C13.8969 15.528 13.9369 14.752 13.6409 13.968ZM13.1369 15.12C13.1369 15.144 13.1369 15.16 13.1209 15.184C13.1049 15.328 13.0809 15.472 13.0329 15.608C12.9449 15.872 12.8249 16.104 12.6169 16.32C12.2649 16.696 11.8169 16.88 11.2969 16.88C10.7849 16.864 10.3609 16.696 10.0089 16.336C9.77686 16.096 9.63286 15.8 9.56086 15.488C9.52086 15.304 9.49686 15.136 9.47286 14.952V14.936C9.47286 14.952 9.47286 14.952 9.48886 14.952C9.48886 14.512 9.60086 14.104 9.86486 13.752C10.1529 13.352 10.5529 13.112 11.0569 13.048C11.3449 13.008 11.6409 13.032 11.9289 13.136C12.2649 13.256 12.5449 13.472 12.7689 13.768C13.0249 14.12 13.1289 14.52 13.1289 14.944C13.1449 14.992 13.1369 15.056 13.1369 15.12Z" fill="#01C16B"/>
</g>
<defs>
<linearGradient id="paint0_linear_5027_35188" x1="12" y1="0" x2="12" y2="24" gradientUnits="userSpaceOnUse">
<stop offset="4.52862e-07" stop-color="#3A3A51"/>
<stop offset="1" stop-color="#191927"/>
</linearGradient>
<clipPath id="clip0_5027_35188">
<rect width="24" height="24" rx="4" fill="white"/>
</clipPath>
</defs>
</svg>

<svg fill="none" height="24" viewBox="0 0 24 24" width="24" xmlns="http://www.w3.org/2000/svg" xmlns:xlink="http://www.w3.org/1999/xlink"><linearGradient id="a" gradientUnits="userSpaceOnUse" x1="12" x2="12" y1="0" y2="24"><stop offset=".00000045286" stop-color="#3a3a51"/><stop offset="1" stop-color="#191927"/></linearGradient><clipPath id="b"><rect height="24" rx="4" width="24"/></clipPath><g clip-path="url(#b)"><path d="m24 0h-24v24h24z" fill="url(#a)"/><path d="m4.20841 17.352c0-1.32 0-2.632 0-3.968.024.024.04.048.048.064.28.424.568.84.848 1.264.584.864 1.176 1.736 1.76 2.592.024.048.064.064.112.064h.704.064c0-1.616 0-3.216 0-4.824-.216 0-.44 0-.656 0v3.952c-.024-.016-.04-.024-.048-.04-.864-1.296-1.72-2.584-2.584-3.872-.024-.04-.048-.048-.088-.048-.24 0-.496 0-.736 0-.024 0-.04 0-.064 0v4.816zm1.744-10.83198v4.02398h.488c0-.024 0-.048 0-.072 0-.4 0-.81598 0-1.21598 0-.088.016-.184.024-.264.064-.352.312-.568.656-.568.28 0 .488.144.56.416.024.088.024.184.04.28v1.38398.072h.488c0-.024 0-.04 0-.064 0-.512 0-1.03198 0-1.54398 0-.088 0-.168-.024-.256-.048-.288-.192-.52-.472-.656-.192-.088-.416-.112-.632-.072-.264.048-.488.168-.632.416h-.016c0-.616 0-1.248 0-1.864-.16-.016-.32-.016-.48-.016zm8.15199 4.02398c0-.024 0-.04 0-.048 0-.51998 0-1.03998 0-1.56798 0-.072 0-.144-.016-.216-.04-.24-.144-.448-.352-.592-.312-.216-.824-.208-1.152.024-.096.072-.168.16-.24.256 0-.12 0-.24 0-.376-.088 0-.168 0-.24 0s-.16 0-.232 0v2.51998h.472c0-.024 0-.048 0-.072 0-.4 0-.79198 0-1.19198 0-.088 0-.16.016-.24.04-.36.256-.592.608-.632.28-.04.52.072.608.336.04.112.048.216.048.336v1.36798.072c.16.024.32.024.48.024zm-9.01599-.66398c-.016.016-.024.04-.04.048-.328.35198-.968.28798-1.224-.12-.168-.264-.184-.544-.096-.84.184-.632.848-.68 1.2-.424.064.048.112.088.168.136.12-.112.24-.216.352-.328-.392-.472-1.336-.568-1.88-.072-.536.488-.544 1.48-.04 1.96798.544.52 1.528.44 1.904-.04-.096-.096-.208-.208-.344-.32798z" fill="#fafdfc"/><path d="m4.20873 17.3521c-.232 0-.44 0-.656 0 0-1.6 0-3.216 0-4.816h.064.736c.048 0 .072.016.088.048.872 1.288 1.736 2.568 2.592 3.856.016.016.024.024.048.04 0-1.312 0-2.632 0-3.952h.656v4.824c-.024 0-.04 0-.064 0-.232 0-.464 0-.704 0-.048 0-.088-.016-.112-.064-.584-.864-1.168-1.736-1.76-2.592-.28-.424-.568-.84-.848-1.264-.016-.016-.024-.04-.048-.064.008 1.352.008 2.656.008 3.984z" fill="#01c16b"/><path d="m5.95234 6.52002h.472v1.864h.016c.136-.24.352-.376.632-.416.216-.04.424-.024.632.072.28.12.424.352.472.656.016.088.024.168.024.256v1.54398.064c-.16 0-.312 0-.488 0 0-.024 0-.048 0-.072 0-.464 0-.91998 0-1.38398 0-.096-.016-.192-.04-.28-.072-.264-.264-.416-.56-.416-.352 0-.592.216-.656.568-.016.088-.024.184-.024.264v1.21598.072c-.16 0-.312 0-.488 0 .008-1.32798.008-2.66398.008-4.00798z" fill="#fafdfc"/><path d="m14.1049 10.544c-.16 0-.312 0-.472 0 0-.024 0-.048 0-.072 0-.464 0-.91199 0-1.36799 0-.112-.016-.232-.048-.336-.096-.264-.328-.376-.608-.336-.352.04-.56.264-.608.632-.016.088-.016.16-.016.24v1.19199.072c-.16 0-.312 0-.472 0 0-.83999 0-1.67199 0-2.51999h.232.24v.376c.072-.096.144-.192.24-.256.328-.232.84-.24 1.152-.024.208.144.312.352.352.592.016.072.016.144.016.216v1.56799c-.008-.008-.008 0-.008.024z" fill="#fafdfc"/><path d="m5.08837 9.88005c.12.12005.24.24005.352.35205-.376.464-1.36.544-1.904.04-.512-.48805-.496-1.48005.04-1.96805.544-.496 1.488-.392 1.88.072-.12.112-.24.216-.352.328-.064-.048-.112-.096-.168-.136-.352-.256-1.016-.208-1.2.424-.088.288-.072.568.096.84.256.41605.896.47205 1.224.12.008-.04.024-.064.032-.072z" fill="#fafdfc"/><path d="m20.8323 12.544c-.048.144-.088.288-.136.44-.424 1.44-.84 2.888-1.264 4.328-.016.04-.024.048-.064.048-.192 0-.392 0-.584 0-.048 0-.064-.016-.072-.064-.208-.704-.424-1.416-.632-2.12-.168-.568-.336-1.144-.512-1.712 0-.016-.016-.024-.024-.048-.024.096-.064.184-.088.264-.352 1.216-.712 2.416-1.064 3.624-.016.048-.04.064-.088.064-.192 0-.392 0-.568 0-.048 0-.064-.016-.072-.048-.304-1.032-.608-2.064-.896-3.096-.16-.536-.312-1.064-.464-1.6-.016-.024-.016-.048-.024-.072h.04.608c.04 0 .048.024.064.048.144.544.304 1.088.448 1.624.192.704.392 1.416.584 2.12 0 .016.016.04.024.064.392-1.296.768-2.584 1.144-3.872h.44.264c.04 0 .048.016.064.048.12.416.24.824.36 1.24.24.84.496 1.688.736 2.52 0 .016.016.024.024.048.048-.184.096-.36.144-.544.304-1.088.608-2.168.896-3.264.016-.04.024-.064.072-.064.216.016.432.016.64.024 0-.008 0-.008 0 0z" fill="#01c16b"/><g fill="#fafdfc"><path d="m16.9685 8.02398v.336c-.232-.264-.512-.4-.848-.4-.472-.016-.848.16-1.104.56-.184.28-.232.584-.208.912.024.28.12.52.304.72802.304.328.68.464 1.112.416.256-.04.472-.12.64-.312.04-.04.064-.072.096-.12.016.016.016.016.016.024 0 .16 0 .312-.016.472-.016.208-.088.392-.24.52-.144.12-.312.184-.512.208-.312.04-.592-.024-.848-.216-.072-.064-.136-.12-.208-.184-.112.136-.216.264-.328.4.136.136.288.24.464.312.28.12.568.16.864.144.312-.016.592-.096.84-.288.328-.264.464-.616.464-1.032 0-.80002 0-1.61602 0-2.41602 0-.024 0-.04 0-.064-.176 0-.336 0-.488 0zm-.392 2.00002c-.288.168-.864.168-1.128-.23202-.216-.328-.184-.888.096-1.152.256-.24.544-.288.872-.192.328.112.496.36.536.688.016.048.016.096.016.136 0 .328-.112.584-.392.75202z"/><path d="m20.6483 9.45604c0-.088.016-.184-.016-.28-.016-.28-.072-.544-.24-.776-.232-.312-.56-.464-.944-.464-.464 0-.84.168-1.104.56-.216.328-.264.688-.192 1.08.048.256.16.48796.336.66396.208.208.464.328.752.352.448.048.848-.048 1.176-.376.048-.04.088-.088.12-.136-.12-.09596-.24-.18396-.36-.27996-.016.024-.04.04-.048.064-.192.20796-.424.33596-.712.31196-.328-.024-.584-.168-.728-.47196-.04-.088-.048-.168-.048-.256h1.008c.344 0 .664.008 1 .008zm-1.904-.752c.216-.336.656-.464 1.016-.288.216.112.376.352.36.656-.496 0-.992 0-1.488 0 .008-.144.056-.264.112-.368z"/><path d="m9.3285 8.60791c-.016.016-.016.016-.016.016.016-.008.016-.008.016-.016z"/><path d="m11.0967 9.90397c-.016-.392 0-.792-.016-1.176-.016-.288-.16-.52-.424-.64-.496-.232-.96804-.168-1.43204.088-.072.04-.136.096-.216.16.12.096.216.192.312.28.04-.016.072-.04.12-.064.216-.168.472-.232.75204-.184.312.048.488.328.44.616-.024 0-.048 0-.072 0-.192 0-.376 0-.56804.016-.256.024-.496.072-.712.208-.208.12-.336.304-.36.56-.04.35203.136.65603.448.77603.168.072.352.088.536.072.31204-.024.56804-.144.75204-.416.016-.016.016-.024.016-.04l.016.016c0 .12.016.24.016.36h.424c-.024-.224-.032-.424-.032-.63203zm-.472-.416v.04c0 .024 0 .048-.016.072v.024c0 .016 0 .024-.016.048-.024.144-.088.28-.208.37603-.144.136-.312.16-.49604.16-.024 0-.064 0-.088 0-.112 0-.216-.024-.304-.088-.208-.14403-.192-.44803 0-.60803.112-.088.24-.12.36-.144.136-.024.39204-.04.58404-.04h.168v.096c.016.032.016.056.016.064z"/></g><path d="m13.6409 13.968c-.232-.632-.68-1.088-1.312-1.36-.472-.192-.96-.24-1.456-.168-.488.072-.91204.264-1.27204.592-.328.304-.544.656-.68 1.064-.12.392-.16.792-.112 1.192.088.688.392 1.264.936 1.688.46404.352.98404.512 1.56804.512.112-.016.208-.016.288-.024.816-.088 1.456-.472 1.864-1.192.432-.744.472-1.52.176-2.304zm-.504 1.152c0 .024 0 .04-.016.064-.016.144-.04.288-.088.424-.088.264-.208.496-.416.712-.352.376-.8.56-1.32.56-.512-.016-.936-.184-1.288-.544-.23204-.24-.37604-.536-.44804-.848-.04-.184-.064-.352-.088-.536v-.016c0 .016 0 .016.016.016 0-.44.112-.848.376-1.2.28804-.4.68804-.64 1.19204-.704.288-.04.584-.016.872.088.336.12.616.336.84.632.256.352.36.752.36 1.176.016.048.008.112.008.176z" fill="#01c16b"/></g></svg>
